rospo-dark/16x16/actions/image-denoise.svg

<svg height="16" viewBox="0 0 16 16" width="16" xmlns="http://www.w3.org/2000/svg"><path d="m1 1v2h2 2v2h2v-2-2h-2-2zm6 4v2h2 2v-2h-2zm4 0h2v-2h-2zm0-2v-2h-2v2zm-4 4h-2v2h2zm-2 2h-2v2h2zm-2 0v-2h-2v2zm0-2h2v-2h-2zm8 2v2h2v-2zm2 2v2 2h2v-2-2zm-6 0v2h2v-2zm2 2v2h2v-2zm-6 0v2h2v-2z" fill="#d3dae3"/></svg>

<?xml version="1.0" encoding="UTF-8" standalone="no"?>
<svg xmlns="http://www.w3.org/2000/svg" width="22" height="22" viewBox="0 0 22 22">
 <defs>
  <style type="text/css" id="current-color-scheme">
   .ColorScheme-Text { color:#d3dae3; } .ColorScheme-Highlight { color:#5294e2; }
  </style>
 </defs>
 <path style="fill:currentColor;opacity:1" class="ColorScheme-Text" transform="translate(3 3)" d="M 1 1 L 1 3 L 3 3 L 5 3 L 5 5 L 7 5 L 7 3 L 7 1 L 5 1 L 3 1 L 1 1 z M 7 5 L 7 7 L 9 7 L 11 7 L 11 5 L 9 5 L 7 5 z M 11 5 L 13 5 L 13 3 L 11 3 L 11 5 z M 11 3 L 11 1 L 9 1 L 9 3 L 11 3 z M 7 7 L 5 7 L 5 9 L 7 9 L 7 7 z M 5 9 L 3 9 L 3 11 L 5 11 L 5 9 z M 3 9 L 3 7 L 1 7 L 1 9 L 3 9 z M 3 7 L 5 7 L 5 5 L 3 5 L 3 7 z M 11 9 L 11 11 L 13 11 L 13 9 L 11 9 z M 13 11 L 13 13 L 13 15 L 15 15 L 15 13 L 15 11 L 13 11 z M 7 11 L 7 13 L 9 13 L 9 11 L 7 11 z M 9 13 L 9 15 L 11 15 L 11 13 L 9 13 z M 3 13 L 3 15 L 5 15 L 5 13 L 3 13 z"/>
</svg>
